svg/tornado.svg

<svg viewBox="0 0 20 20" xmlns="http://www.w3.org/2000/svg">
<rect width="100%" height="100%" fill="#61A0D1"/>
<path d="M6.61637 14.6371C6.70929 14.6532 6.80267 14.6662 6.89636 14.6762C6.98704 14.8581 7.10035 15.0284 7.23394 15.1828C7.4444 15.4261 7.70099 15.6252 7.98889 15.7687C8.21832 15.8778 8.4614 15.9533 8.71066 15.9936C8.78649 16.1328 8.87894 16.2628 8.98627 16.3806C9.16893 16.581 9.39078 16.7419 9.63809 16.8532C9.8907 16.9657 10.1601 17.0344 10.4346 17.0568C11.2425 17.5996 11.3791 18.0055 11.364 18.1288C11.3243 18.2383 11.3275 18.3588 11.373 18.4661C11.4185 18.5734 11.5029 18.6594 11.6092 18.707C11.669 18.7351 11.7342 18.7497 11.8002 18.7498C11.8514 18.7515 11.9025 18.7439 11.9509 18.7273C12.6265 18.5303 13.2369 18.156 13.7188 17.6432C14.1446 17.1901 14.4563 16.6436 14.6299 16.0489C14.8687 15.918 15.0747 15.7326 15.2303 15.5065C15.4289 15.2182 15.5363 14.8769 15.5389 14.5268C15.8998 14.1069 16.5945 13.0151 16.1452 11.0944C16.3221 10.8543 16.486 10.6011 16.6303 10.3354C17.8249 8.13507 16.889 6.64568 16.7697 6.47469C16.3949 5.94038 15.9003 5.50121 15.3254 5.19229C14.4457 4.71308 12.9653 4.32836 10.9404 5.20579C9.41281 5.86499 8.37339 6.66368 7.85143 7.57936C7.70007 7.85154 7.60853 8.15289 7.58293 8.46327C7.55732 8.77365 7.59823 9.08592 7.70294 9.37922L8.8346 9.6717L7.70969 9.38822C7.06399 9.14749 7.03024 8.51979 7.06399 8.15307C7.12923 7.34763 8.12366 6.54444 8.86385 6.01123C10.2677 4.99881 12.5221 4.30811 12.5446 4.30811C12.6037 4.29053 12.6587 4.26148 12.7066 4.22263C12.7544 4.18378 12.7942 4.13587 12.8235 4.08166C12.8529 4.02745 12.8713 3.96798 12.8776 3.90666C12.884 3.84534 12.8783 3.78337 12.8607 3.72428C12.8431 3.66519 12.814 3.61014 12.7752 3.56227C12.7363 3.51441 12.6884 3.47467 12.6342 3.44531C12.58 3.41596 12.5205 3.39757 12.4592 3.3912C12.3979 3.38483 12.3359 3.3906 12.2768 3.40818C12.2666 3.41236 12.2327 3.42352 12.1783 3.44139C11.706 3.59658 9.69335 4.25792 8.31939 5.24854C7.35647 5.94148 6.2383 6.88641 6.12806 8.05632C6.06731 8.69978 6.31704 9.31848 6.87275 9.90343C7.18617 10.2022 7.57508 10.4098 7.99767 10.5041C8.2004 10.5521 8.40804 10.5762 8.61637 10.5761C9.5028 10.5761 10.3015 10.1442 10.8527 9.7392C12.5198 8.51529 12.3038 7.19239 11.9506 6.64568C11.7877 6.39967 11.5677 6.19667 11.3094 6.05398C13.0615 5.2974 14.2891 5.63171 15.0463 6.09723C15.279 6.46552 15.5797 7.21841 15.4698 7.91683C15.3528 8.64802 14.5879 9.31847 14.3044 9.51646C14.2269 9.57015 14.1737 9.65227 14.1564 9.74496C14.1392 9.83765 14.1592 9.93341 14.2121 10.0114C14.2446 10.0589 14.2883 10.0978 14.3393 10.1244C14.3903 10.1511 14.4471 10.1648 14.5046 10.1644C14.5767 10.1672 14.648 10.1484 14.7094 10.1104C14.7632 10.073 15.9852 9.22289 16.174 8.03607C16.1993 7.82904 16.2057 7.62093 16.1934 7.41429C16.3417 7.88857 16.4319 8.74758 15.8136 9.88769C14.7449 11.854 12.3916 13.0937 12.3578 13.1094C12.2484 13.1665 12.166 13.2645 12.1285 13.3821C12.091 13.4996 12.1015 13.6273 12.1576 13.7371C12.1854 13.7918 12.2238 13.8403 12.2705 13.8799C12.3173 13.9195 12.3715 13.9494 12.4299 13.9678C12.4884 13.9863 12.5499 13.9929 12.6109 13.9872C12.6719 13.9816 12.7312 13.9639 12.7853 13.9351C12.8605 13.8999 14.1689 13.2072 15.3482 12.0186C15.4433 13.3564 14.8104 13.9423 14.7537 13.9914C14.6814 14.0428 14.627 14.1156 14.5984 14.1996C14.5697 14.2836 14.5682 14.3744 14.594 14.4593C14.612 14.5583 14.6592 15.0083 14.0338 15.3053C13.9374 15.3498 13.8593 15.426 13.8124 15.5212C13.7854 15.5759 13.7697 15.635 13.7657 15.6949C13.6339 16.1992 13.3747 16.6614 13.0126 17.0369C12.7741 17.2843 12.4965 17.4884 12.1921 17.6419C12.0991 17.3973 11.9372 17.1538 11.7085 16.9138C12.0169 16.8339 12.3175 16.7233 12.6056 16.5832C12.7103 16.5279 12.79 16.4349 12.8285 16.323C12.8671 16.2112 12.8616 16.0888 12.8132 15.9808C12.7648 15.8728 12.6771 15.7873 12.5679 15.7416C12.4587 15.696 12.3363 15.6936 12.2254 15.735C11.3052 16.149 10.5515 16.2479 10.0453 16.023C9.99664 16.002 9.94973 15.9774 9.90495 15.9495C10.2905 15.8787 10.667 15.7616 11.0262 15.6C11.0908 15.5836 11.1512 15.5534 11.2032 15.5117C11.2552 15.4699 11.2976 15.4174 11.3276 15.3578C11.3576 15.2982 11.3744 15.2328 11.3769 15.1662C11.3794 15.0995 11.3675 15.0331 11.3422 14.9714C11.3168 14.9097 11.2784 14.8541 11.2297 14.8086C11.181 14.763 11.123 14.7284 11.0598 14.7071C10.9965 14.6859 10.9295 14.6785 10.8631 14.6854C10.7968 14.6924 10.7327 14.7135 10.6752 14.7473C9.73025 15.1388 8.96981 15.204 8.4141 14.9386C8.26842 14.8681 8.13673 14.775 8.02325 14.6639C8.92063 14.5727 9.79503 14.3147 10.6008 13.9014C10.6642 13.8811 10.7224 13.8475 10.7717 13.8028C10.8209 13.7581 10.8601 13.7034 10.8864 13.6424C10.9128 13.5813 10.9257 13.5153 10.9244 13.4488C10.9232 13.3823 10.9076 13.3169 10.8789 13.2569C10.8502 13.1969 10.809 13.1437 10.7581 13.101C10.7071 13.0583 10.6476 13.0269 10.5835 13.0091C10.5194 12.9913 10.4523 12.9874 10.3866 12.9978C10.3209 13.0081 10.2581 13.0324 10.2026 13.0689C9.44871 13.4468 8.62909 13.676 7.78853 13.7439C7.45998 13.7728 7.12914 13.7622 6.80311 13.7124H6.77611L6.77434 13.7121C6.70673 13.7005 4.96583 13.4013 4.15056 11.7685C3.35387 10.1752 3.81235 8.22062 3.86843 7.98151C3.8719 7.96673 3.87383 7.95851 3.87383 7.95733C4.64994 4.94771 8.19183 3.06385 8.36702 2.97067L8.37349 2.96721L8.39823 2.95371C9.72226 2.19218 11.2081 1.75575 12.7337 1.6803C12.7974 1.68474 12.8613 1.67602 12.9216 1.65468C12.9818 1.63334 13.037 1.59985 13.0837 1.55627C13.1304 1.51269 13.1676 1.45997 13.1931 1.40139C13.2186 1.3428 13.2317 1.2796 13.2317 1.21571C13.2317 1.15183 13.2186 1.08863 13.1931 1.03004C13.1676 0.971456 13.1304 0.918735 13.0837 0.875159C13.037 0.831584 12.9818 0.798085 12.9216 0.776747C12.8613 0.755409 12.7974 0.746687 12.7337 0.751125C11.0459 0.819265 9.40018 1.29807 7.93927 2.14602C7.64004 2.29901 3.85133 4.30811 2.98065 7.7256C2.93565 7.88083 2.3147 10.1914 3.32037 12.2028C4.32604 14.2141 6.41613 14.6056 6.61637 14.6371Z" fill="white"/>
<path d="M5.13815 9.05299H5.1629C5.25446 9.0556 5.34353 9.02299 5.41176 8.96188C5.47998 8.90076 5.52217 8.81581 5.52962 8.72452C5.65111 6.82566 6.91777 5.6625 7.45097 5.25078C10.3758 2.98745 12.7718 2.91096 13.0328 2.91321C13.0795 2.91321 13.1257 2.90401 13.1688 2.88615C13.212 2.86829 13.2511 2.8421 13.2842 2.80909C13.3172 2.77608 13.3434 2.7369 13.3612 2.69377C13.3791 2.65064 13.3883 2.60442 13.3883 2.55774C13.3883 2.51105 13.3791 2.46483 13.3612 2.4217C13.3434 2.37857 13.3172 2.33939 13.2842 2.30638C13.2511 2.27337 13.212 2.24719 13.1688 2.22932C13.1257 2.21146 13.0795 2.20226 13.0328 2.20226H12.8506C12.1126 2.24276 9.78855 2.55099 7.00551 4.68607C6.38456 5.15629 4.96041 6.48369 4.80968 8.67502C4.80601 8.72132 4.81169 8.76788 4.82637 8.81194C4.84106 8.856 4.86446 8.89666 4.89517 8.9315C4.92565 8.96679 4.96281 8.99569 5.00451 9.01654C5.04622 9.03739 5.09164 9.04978 5.13815 9.05299Z" fill="white"/>
</svg>

<svg xmlns="http://www.w3.org/2000/svg" viewBox="0 0 20 20">
  <rect width="100%" height="100%" fill="#61A0D1"/>
  <path fill="#fff" d="m6.62 14.64.28.04a2.43 2.43 0 0 0 1.81 1.31 1.98 1.98 0 0 0 .93.86c.25.12.52.18.8.2.8.55.94.96.92 1.08a.46.46 0 0 0 .25.58c.06.03.12.04.19.04.05 0 .1 0 .15-.02a3.94 3.94 0 0 0 2.68-2.68 1.75 1.75 0 0 0 .9-1.52c.37-.42 1.06-1.51.62-3.44.17-.24.34-.49.48-.75 1.2-2.2.26-3.7.14-3.87a4.18 4.18 0 0 0-1.44-1.28c-.88-.48-2.36-.86-4.39.02-1.53.65-2.57 1.45-3.09 2.37a2.19 2.19 0 0 0-.15 1.8l1.13.3-1.12-.3c-.65-.23-.68-.86-.65-1.23.07-.8 1.06-1.6 1.8-2.14a14.7 14.7 0 0 1 3.68-1.7.47.47 0 0 0-.26-.9l-.1.03c-.47.16-2.49.82-3.86 1.8-.96.7-2.08 1.65-2.2 2.82-.05.64.2 1.26.75 1.84.32.3.7.51 1.13.6.2.05.4.08.62.08a3.9 3.9 0 0 0 2.23-.84c1.67-1.22 1.45-2.55 1.1-3.1a1.83 1.83 0 0 0-.64-.59c1.75-.75 2.98-.42 3.74.05.23.37.53 1.12.42 1.82-.12.73-.88 1.4-1.17 1.6a.36.36 0 0 0 .04.6c.05.03.1.04.16.04.08 0 .15-.01.2-.05.06-.04 1.29-.89 1.47-2.07.03-.21.04-.42.02-.63.15.48.24 1.34-.38 2.48-1.07 1.96-3.42 3.2-3.45 3.22a.47.47 0 0 0 .07.86.46.46 0 0 0 .36-.03 11.3 11.3 0 0 0 2.56-1.92c.1 1.34-.54 1.92-.6 1.97a.42.42 0 0 0-.16.47c.02.1.07.55-.56.85a.46.46 0 0 0-.26.38 3.04 3.04 0 0 1-1.58 1.95c-.1-.24-.25-.49-.48-.73.3-.08.6-.19.9-.33a.47.47 0 0 0-.38-.84c-.92.4-1.68.5-2.18.28l-.15-.07a4.88 4.88 0 0 0 1.3-.44.47.47 0 0 0-.52-.76c-.95.39-1.71.45-2.27.19a1.48 1.48 0 0 1-.39-.28 7.26 7.26 0 0 0 2.75-.86.47.47 0 0 0-.57-.73c-.75.38-1.57.6-2.41.67-.33.03-.66.02-.99-.03h-.02a3.81 3.81 0 0 1-2.63-1.94c-.8-1.6-.34-3.55-.28-3.79v-.02c.78-3.01 4.32-4.9 4.5-4.99l.03-.02a9.65 9.65 0 0 1 4.52-1.3.47.47 0 0 0-.19-.9c-1.68.07-3.33.55-4.8 1.4-.29.15-4.08 2.16-4.95 5.58-.04.15-.67 2.46.34 4.47 1 2.01 3.1 2.4 3.3 2.44Z"/>
  <path fill="#fff" d="M5.14 9.05h.02a.36.36 0 0 0 .37-.33 4.87 4.87 0 0 1 1.92-3.47c2.93-2.26 5.32-2.34 5.58-2.34a.36.36 0 1 0 0-.7h-.18c-.74.03-3.06.34-5.84 2.48a5.57 5.57 0 0 0-2.2 3.99.35.35 0 0 0 .09.25.35.35 0 0 0 .24.12Z"/>
</svg>
